static/img/emoji/svg/kissing-female-black-emoticon-face.svg

<svg xmlns="http://www.w3.org/2000/svg" width="478.125" height="478.125" viewBox="0 0 478.125 478.125"><path d="M239.062 0C107.1 0 0 107.1 0 239.062c0 131.963 107.1 239.062 239.062 239.062 131.963 0 239.062-107.1 239.062-239.062C478.125 107.1 371.025 0 239.062 0zM114.75 114.75h76.5v19.125h-76.5V114.75zm57.375 76.5c0 11.475-7.65 19.125-19.125 19.125s-19.125-7.65-19.125-19.125 7.65-19.125 19.125-19.125 19.125 7.65 19.125 19.125zm66.937 191.25c-57.375 0-86.062-57.375-105.188-57.375 28.688 0 47.812-28.688 66.938-28.688s19.125 9.562 38.25 19.125c19.125-9.562 19.125-19.125 38.25-19.125s38.25 28.688 66.938 28.688c-19.125 0-49.725 57.375-105.188 57.375zm86.063-172.125c-11.475 0-19.125-7.65-19.125-19.125s7.65-19.125 19.125-19.125 19.125 7.65 19.125 19.125-7.65 19.125-19.125 19.125zm38.25-76.5h-76.5V114.75h76.5v19.125z"/></svg>

<?xml version="1.0" encoding="iso-8859-1"?>
<!-- Generator: Adobe Illustrator 16.0.0, SVG Export Plug-In . SVG Version: 6.00 Build 0)  -->
<!DOCTYPE svg PUBLIC "-//W3C//DTD SVG 1.1//EN" "http://www.w3.org/Graphics/SVG/1.1/DTD/svg11.dtd">
<svg version="1.1" id="Capa_1" xmlns="http://www.w3.org/2000/svg" xmlns:xlink="http://www.w3.org/1999/xlink" x="0px" y="0px"
	 width="478.125px" height="478.125px" viewBox="0 0 478.125 478.125" style="enable-background:new 0 0 478.125 478.125;"
	 xml:space="preserve">
<g>
	<path d="M239.062,0C107.1,0,0,107.1,0,239.062c0,131.963,107.1,239.062,239.062,239.062c131.963,0,239.062-107.1,239.062-239.062
		C478.125,107.1,371.025,0,239.062,0z M114.75,114.75h76.5v19.125h-76.5V114.75z M172.125,191.25
		c0,11.475-7.65,19.125-19.125,19.125s-19.125-7.65-19.125-19.125s7.65-19.125,19.125-19.125S172.125,179.775,172.125,191.25z
		 M239.062,382.5c-57.375,0-86.062-57.375-105.188-57.375c28.688,0,47.812-28.688,66.938-28.688s19.125,9.562,38.25,19.125
		c19.125-9.562,19.125-19.125,38.25-19.125s38.25,28.688,66.938,28.688C325.125,325.125,294.525,382.5,239.062,382.5z
		 M325.125,210.375c-11.475,0-19.125-7.65-19.125-19.125s7.65-19.125,19.125-19.125s19.125,7.65,19.125,19.125
		S336.6,210.375,325.125,210.375z M363.375,133.875h-76.5V114.75h76.5V133.875z"/>
</g>
<g>
</g>
<g>
</g>
<g>
</g>
<g>
</g>
<g>
</g>
<g>
</g>
<g>
</g>
<g>
</g>
<g>
</g>
<g>
</g>
<g>
</g>
<g>
</g>
<g>
</g>
<g>
</g>
<g>
</g>
</svg>
